X: 1183
T: TURKISH DANCE
B: Oliver Ditson "The Boston Collection of Instrumental Music" 1910 p.118 #3
F: http://conquest.imslp.info/files/imglnks/usimg/8/8f/IMSLP175643-PMLP309456-bostoncollection00bost_bw.pdf
%: 2012 John Chambers <jc:trillian.mit.edu>
M: 2/4
L: 1/16
K: D
A2 |\
d2AA A2f2 | d2AA A2f2 | e2c2 A2c2 | d2f2 a4 |\
d2AA A2f2 | d2AA A2f2 | e2c2 A2c2 | d6 H|]
A2 |\
g2gf e2e2 | f2fe d2d2 | e2e^d efge | d2f2 a4 |\
g2gf e2e2 | f2fe d2d2 | e2eg c2ce | "^da Capo"d6 |]
%%begintext align
First two forward and back twice.
Back to back.
Balance to partners.
All promenade.
%%endtext

%%sep 1 1 500
%%sep 1 1 500
